client/src/assets/Plus_icon.svg

<svg width="27" height="27" viewBox="0 0 27 27" fill="none" xmlns="http://www.w3.org/2000/svg">
<circle cx="13.5" cy="13.5" r="13.5" fill="#C0D1E0" fill-opacity="0.5"/>
<path fill-rule="evenodd" clip-rule="evenodd" d="M13.8785 13.8899L17.9739 13.85C18.1563 13.842 18.2996 13.6909 18.2979 13.5084C18.2962 13.3258 18.1501 13.1774 17.9675 13.173L13.8785 13.2129L13.8386 9.03762C13.8416 8.91391 13.777 8.79838 13.6699 8.7363C13.5629 8.67422 13.4305 8.67547 13.3246 8.73956C13.2187 8.80365 13.1562 8.92038 13.1616 9.04402L13.2015 13.2129L9.03257 13.1731C8.85004 13.1775 8.70392 13.3259 8.70219 13.5085C8.70047 13.691 8.84376 13.8421 9.02617 13.85L13.2015 13.8899L13.1615 17.979C13.166 18.1615 13.3143 18.3076 13.4969 18.3094C13.6795 18.3111 13.8306 18.1678 13.8385 17.9854L13.8785 13.8899Z" fill="white" stroke="white"/>
</svg>

<svg width="27" height="27" fill="none" xmlns="http://www.w3.org/2000/svg"><circle cx="13.5" cy="13.5" r="13.5" fill="#C0D1E0" fill-opacity=".5"/><path fill-rule="evenodd" clip-rule="evenodd" d="M13.879 13.89l4.095-.04a.339.339 0 00-.006-.677l-4.09.04-.04-4.175a.339.339 0 10-.676.006l.04 4.169-4.17-.04a.339.339 0 00-.006.677l4.175.04-.04 4.089a.339.339 0 00.678.006l.04-4.095z" fill="#fff" stroke="#fff"/></svg>
